svg/food/fish_fill.svg

<?xml version="1.0" encoding="UTF-8"?>
<svg width="24px" height="24px" viewBox="0 0 24 24" version="1.1" xmlns="http://www.w3.org/2000/svg" xmlns:xlink="http://www.w3.org/1999/xlink">
    <title>fish_fill</title>
    <g id="页面-1" stroke="none" stroke-width="1" fill="none" fill-rule="evenodd">
        <g id="Food" transform="translate(-192.000000, -48.000000)">
            <g id="fish_fill" transform="translate(192.000000, 48.000000)">
                 <path d="M24,0 L24,24 L0,24 L0,0 L24,0 Z M12.5934901,23.257841 L12.5819402,23.2595131 L12.5108777,23.2950439 L12.4918791,23.2987469 L12.4918791,23.2987469 L12.4767152,23.2950439 L12.4056548,23.2595131 C12.3958229,23.2563662 12.3870493,23.2590235 12.3821421,23.2649074 L12.3780323,23.275831 L12.360941,23.7031097 L12.3658947,23.7234994 L12.3769048,23.7357139 L12.4804777,23.8096931 L12.4953491,23.8136134 L12.4953491,23.8136134 L12.5071152,23.8096931 L12.6106902,23.7357139 L12.6232938,23.7196733 L12.6232938,23.7196733 L12.6266527,23.7031097 L12.609561,23.275831 C12.6075724,23.2657013 12.6010112,23.2592993 12.5934901,23.257841 L12.5934901,23.257841 Z M12.8583906,23.1452862 L12.8445485,23.1473072 L12.6598443,23.2396597 L12.6498822,23.2499052 L12.6498822,23.2499052 L12.6471943,23.2611114 L12.6650943,23.6906389 L12.6699349,23.7034178 L12.6699349,23.7034178 L12.678386,23.7104931 L12.8793402,23.8032389 C12.8914285,23.8068999 12.9022333,23.8029875 12.9078286,23.7952264 L12.9118235,23.7811639 L12.8776777,23.1665331 C12.8752882,23.1545897 12.8674102,23.1470016 12.8583906,23.1452862 L12.8583906,23.1452862 Z M12.1430473,23.1473072 C12.1332178,23.1423925 12.1221763,23.1452606 12.1156365,23.1525954 L12.1099173,23.1665331 L12.0757714,23.7811639 C12.0751323,23.7926639 12.0828099,23.8018602 12.0926481,23.8045676 L12.108256,23.8032389 L12.3092106,23.7104931 L12.3186497,23.7024347 L12.3186497,23.7024347 L12.3225043,23.6906389 L12.340401,23.2611114 L12.337245,23.2485176 L12.337245,23.2485176 L12.3277531,23.2396597 L12.1430473,23.1473072 Z" id="MingCute" fill-rule="nonzero"></path>
                <path d="M16.2017,2.07372 C17.2419,2.12325 18.1599,2.34574 18.8753,2.60933 C19.5501,2.85794 20.1547,3.184 20.4852,3.51453 C20.8157,3.84505 21.1418,4.4496 21.3904,5.12441 C21.654,5.83986 21.8765,6.75787 21.926,7.79799 C22.0113,9.58816 21.5809,11.7254 20.0069,13.7666 L19.98755,13.81425 L19.98755,13.81425 L18.5513,16.6897 C18.3043,17.1837 17.7036,17.3839 17.2096,17.137 C16.95,17.0071 16.7715,16.7796 16.6964,16.5212 C15.4367,17.1577 14.0095,17.5606 12.5559,17.6991 L12.0455822,17.7414704 L12.0455822,17.7414704 L11.4627739,17.7800152 L11.4627739,17.7800152 L10.486586,17.8330009 L10.486586,17.8330009 L9.43458,17.8834 C8.93163,17.9071 8.42071,17.9311 7.9266,17.9571 C7.87765,18.5742 7.81835,19.1446 7.74282,19.6104 C7.68832,19.9465 7.61668,20.2861 7.51155,20.5623 C7.3207,21.0637 6.91519,21.4851 6.34307,21.4851 C5.590686,21.4851 4.9066604,20.954156 4.34963256,20.4282296 L4.08197327,20.1681658 L4.08197327,20.1681658 L3.70255125,19.7866439 C3.13777929,19.2065831 2.51465,18.4717133 2.51465,17.6567 C2.51465,17.1964 2.78223,16.8992 2.95106,16.7602 C3.2482925,16.5154 3.63240313,16.399525 4.01310219,16.3232641 L4.38932,16.2569 L4.38932,16.2569 C4.85514,16.1814 5.42557,16.1221 6.04262,16.0731 L6.18393288,13.1769328 L6.18393288,13.1769328 L6.21972592,12.5370952 L6.21972592,12.5370952 L6.25827464,11.9542384 C6.2717036,11.771176 6.285772,11.6002 6.30066,11.4439 C6.43911,9.99022 6.84205,8.56309 7.47853,7.30339 C7.22018,7.22832 6.99268,7.04985 6.86287,6.79024 C6.61588,6.29626 6.81611,5.69558 7.31009,5.44859 L10.1385,4.03438 C10.1695,4.01887 10.201,4.00513 10.2327,3.9931 C12.274,2.4189 14.4115,1.98846 16.2017,2.07372 Z M16.9497,7.05012 C16.3639,6.46433 15.4142,6.46433 14.8284,7.05012 C14.2426,7.63591 14.2426,8.58566 14.8284,9.17144 C15.4142,9.75723 16.3639,9.75723 16.9497,9.17144 C17.5355,8.58566 17.5355,7.63591 16.9497,7.05012 Z" id="形状" fill="#09244B"></path>
            </g>
        </g>
    </g>
</svg>

<svg xmlns="http://www.w3.org/2000/svg" width="24" height="24"><g fill="none" fill-rule="evenodd"><path d="M24 0v24H0V0h24ZM12.593 23.258l-.011.002-.071.035-.02.004-.014-.004-.071-.035c-.01-.004-.019-.001-.024.005l-.004.01-.017.428.005.02.01.013.104.074.015.004.012-.004.104-.074.012-.016.004-.017-.017-.427c-.002-.01-.009-.017-.017-.018Zm.265-.113-.013.002-.185.093-.01.01-.003.011.018.43.005.012.008.007.201.093c.012.004.023 0 .029-.008l.004-.014-.034-.614c-.003-.012-.01-.02-.02-.022Zm-.715.002a.023.023 0 0 0-.027.006l-.006.014-.034.614c0 .012.007.02.017.024l.015-.002.201-.093.01-.008.004-.011.017-.43-.003-.012-.01-.01-.184-.092Z"/><path fill="#09244B" d="M16.202 2.074c1.04.05 1.958.272 2.673.535.675.249 1.28.575 1.61.906.33.33.657.935.905 1.61.264.715.486 1.633.536 2.673.085 1.79-.345 3.927-1.92 5.969l-.018.047-1.437 2.876a1 1 0 0 1-1.855-.169 11.709 11.709 0 0 1-4.14 1.178l-.51.042-.583.039-.976.053-1.052.05c-.503.024-1.014.048-1.508.074a21.299 21.299 0 0 1-.184 1.653 5.056 5.056 0 0 1-.231.952c-.191.502-.597.923-1.169.923-.752 0-1.436-.53-1.993-1.057l-.268-.26-.38-.381c-.564-.58-1.187-1.315-1.187-2.13 0-.46.267-.758.436-.897.297-.245.681-.36 1.062-.437l.376-.066a21.341 21.341 0 0 1 1.654-.184l.14-2.896.037-.64.038-.583c.014-.183.028-.354.043-.51.138-1.454.541-2.88 1.178-4.14a1 1 0 0 1-.168-1.855l2.828-1.415c.03-.015.062-.029.094-.04 2.041-1.575 4.179-2.006 5.969-1.92Zm.748 4.976a1.5 1.5 0 1 0-2.122 2.121 1.5 1.5 0 0 0 2.122-2.12Z"/></g></svg>
